X:0
T:Miss Susan Cooper
G:reel
C:Ronnie Cooper
M:C|
L:1/8
Q:1/2=108
K:D
(3ABc|dfed B2dB|A2FA  DAFA|ABde fa^ga|g2fd eAce|
      dfed B2dB|A2FA  DAFA|ABde fafd |eAce d2 :|
  dB |Bcde fBBB|def^g a2gf|eAce a2^ga|g2fd eAce|
      dfed B2dB|A2FA  DAFA|ABde fafd |eAce d2 :|

One genuinely old tune that does a similar modulation, from A minor to
E minor, is this one, well-known in Scotland though it may be from England:

